src/apps/scalable/linuxmint-logo-leaf-badge.svg

<svg id="svg20" width="64" height="64" version="1.1" viewBox="0 0 16.933 16.933" xmlns="http://www.w3.org/2000/svg" xmlns:xlink="http://www.w3.org/1999/xlink">
 <defs id="defs10">
  <linearGradient id="linearGradient829" x1="12.96566" x2="13.104102" y1="272.91965" y2="295.69534" gradientTransform="matrix(.66665355 0 0 .66665355 -9.9999999e-8 -181.06309)" gradientUnits="userSpaceOnUse">
   <stop id="stop823" style="stop-color:#8fbcbb" offset="0"/>
   <stop id="stop825" style="stop-color:#97b67c" offset="1"/>
  </linearGradient>
 </defs>
 <g id="g18" stroke-linecap="round" stroke-linejoin="round">
  <rect id="rect14" x=".92604" y=".92604" width="15.081" height="15.081" rx="3" ry="3" fill="url(#linearGradient1340)" stroke-width="1.2274" style="fill:none"/>
  <rect id="rect16" x=".01215" y=".0060174" width="16.924" height="16.927" fill="none" opacity=".15" stroke-width="1.052"/>
  <path id="rect1013" d="m-9.9999999e-8 0.8764029v4.8533645h1.9963965v0.9739075l0.00275 3.8198511c0 3.145931 2.7326065 5.533071 5.8813591 5.533071h9.0524945v-9.6019905c0-3.1487581-2.729778-5.5327245-5.881358-5.5327245l-2.6333831-6e-3zm4.4220421 2.8080447h1.4775741v6.6489164c0 0.824756 0.652814 1.47757 1.4775759 1.47757h4.432377c0.824761 0 1.477576-0.652814 1.477576-1.47757v-3.6937679c0-0.4167518-0.321861-0.7389588-0.738616-0.7389588-0.416756 0-0.73896 0.322207-0.73896 0.7389588v3.6937679h-1.477574v-3.6937679c0-0.4167518-0.32186-0.7389588-0.738615-0.7389588-0.4167554 0-0.738615 0.322207-0.738615 0.7389588v3.6937679h-1.477573v-3.6937679c0-1.2152627 1.0009224-2.216183 2.216188-2.216183 0.567732 0 1.083577 0.2241156 1.477573 0.5808286 0.393999-0.356713 0.909844-0.5808286 1.477576-0.5808286 1.215266 0 2.216188 1.0009203 2.216188 2.216183v3.6937679c0 1.623268-1.331878 2.955148-2.955148 2.955148h-4.432377c-1.6232722 0-2.95515-1.33188-2.95515-2.955148z" style="fill:url(#linearGradient829)"/>
 </g>
</svg>

<?xml version="1.0" encoding="UTF-8" standalone="no"?>
<svg
   width="64"
   height="64"
   version="1.1"
   viewBox="0 0 16.933 16.933"
   id="svg20"
   sodipodi:docname="linuxmint-logo-leaf-badge.svg"
   inkscape:version="1.1.2 (1:1.1+202202050950+0a00cf5339)"
   xmlns:inkscape="http://www.inkscape.org/namespaces/inkscape"
   xmlns:sodipodi="http://sodipodi.sourceforge.net/DTD/sodipodi-0.dtd"
   xmlns:xlink="http://www.w3.org/1999/xlink"
   xmlns="http://www.w3.org/2000/svg"
   xmlns:svg="http://www.w3.org/2000/svg">
  <sodipodi:namedview
     id="namedview22"
     pagecolor="#505050"
     bordercolor="#eeeeee"
     borderopacity="1"
     inkscape:pageshadow="0"
     inkscape:pageopacity="0"
     inkscape:pagecheckerboard="0"
     showgrid="false"
     inkscape:zoom="12.984375"
     inkscape:cx="32"
     inkscape:cy="31.961492"
     inkscape:window-width="2560"
     inkscape:window-height="1358"
     inkscape:window-x="0"
     inkscape:window-y="0"
     inkscape:window-maximized="1"
     inkscape:current-layer="g18" />
  <defs
     id="defs10">
    <filter
       id="filter1178"
       x="-0.047999482"
       y="-0.047999482"
       width="1.095999"
       height="1.095999"
       color-interpolation-filters="sRGB">
      <feGaussianBlur
         stdDeviation="0.30691668"
         id="feGaussianBlur2" />
    </filter>
    <linearGradient
       inkscape:collect="always"
       xlink:href="#linearGradient827"
       id="linearGradient829"
       x1="12.96566"
       y1="272.91965"
       x2="13.104102"
       y2="295.69534"
       gradientUnits="userSpaceOnUse"
       gradientTransform="matrix(0.66665355,0,0,0.66665355,-9.9999999e-8,-181.06309)" />
    <linearGradient
       inkscape:collect="always"
       id="linearGradient827">
      <stop
         style="stop-color:#8fbcbb;stop-opacity:1"
         offset="0"
         id="stop823" />
      <stop
         style="stop-color:#97b67c;stop-opacity:1"
         offset="1"
         id="stop825" />
    </linearGradient>
  </defs>
  <g
     stroke-linecap="round"
     stroke-linejoin="round"
     id="g18">
    <rect
       x=".92604"
       y=".92604"
       width="15.081"
       height="15.081"
       rx="3"
       ry="3"
       fill="url(#linearGradient1340)"
       stroke-width="1.2274"
       id="rect14"
       style="fill:none;fill-opacity:1" />
    <rect
       x=".01215"
       y=".0060174"
       width="16.924"
       height="16.927"
       fill="none"
       opacity=".15"
       stroke-width="1.052"
       id="rect16" />
    <path
       style="fill:url(#linearGradient829);fill-opacity:1;stroke:none;stroke-width:0.664511;stroke-miterlimit:4;stroke-dasharray:none;stroke-opacity:1"
       d="M -9.9999999e-8,0.8764029 V 5.7297674 H 1.9963964 v 0.9739075 l 0.00275,3.8198511 c 0,3.145931 2.7326065,5.533071 5.8813591,5.533071 H 16.933 V 6.4546065 c 0,-3.1487581 -2.729778,-5.5327245 -5.881358,-5.5327245 l -2.6333831,-0.006 z M 4.422042,3.6844476 h 1.4775741 v 6.6489164 c 0,0.824756 0.652814,1.47757 1.4775759,1.47757 h 4.432377 c 0.824761,0 1.477576,-0.652814 1.477576,-1.47757 V 6.6395961 c 0,-0.4167518 -0.321861,-0.7389588 -0.738616,-0.7389588 -0.416756,0 -0.73896,0.322207 -0.73896,0.7389588 V 10.333364 H 10.331995 V 6.6395961 c 0,-0.4167518 -0.32186,-0.7389588 -0.738615,-0.7389588 -0.4167554,0 -0.738615,0.322207 -0.738615,0.7389588 V 10.333364 H 7.377192 V 6.6395961 c 0,-1.2152627 1.0009224,-2.216183 2.216188,-2.216183 0.567732,0 1.083577,0.2241156 1.477573,0.5808286 0.393999,-0.356713 0.909844,-0.5808286 1.477576,-0.5808286 1.215266,0 2.216188,1.0009203 2.216188,2.216183 v 3.6937679 c 0,1.623268 -1.331878,2.955148 -2.955148,2.955148 H 7.377192 c -1.6232722,0 -2.95515,-1.33188 -2.95515,-2.955148 z"
       id="rect1013"
       inkscape:connector-curvature="0" />
  </g>
</svg>
